Adwaita++-Light/panel/16/persepolis-tray.svg

<svg height="16" width="16" xmlns="http://www.w3.org/2000/svg">
  <path d="m8 1a7 7 0 0 0 -7 7 7 7 0 0 0 7 7 7 7 0 0 0 7-7 7 7 0 0 0 -7-7zm-3 2c1.6 1.2 5.298967 1.201999 7 1.5-1.178779.2616295-3.1171774.3157437-4.7695312.6523438 1.4256746 1.0157423 2.1609842 1.0658577 3.7695312 1.3476562-1.712773.3801489-2.3606939.3421866-3.7890625 1.3613281 1.6843499.3673397 3.6675215.4421911 4.7890625.6386719-1.803821.400357-5.4.3-7 1.5l1.5.199219 1.5-.199219c-1.2 1.6-1.2019989 2.298967-1.5 4-.4003568-1.803821-.3-2.4-1.5-4l.1992188-1.5-.1992188-1.5c.5052456.3789342 1.2285944.6313016 2.0234375.8183594l.1757813-1.3183594-.171875-1.3007812c-.7939185.1766217-1.5168182.417887-2.0273438.8007812l.1992188-1.5zm4 7 1.5.199219 1.5-.199219c-1.2 1.6-1.201999 2.298967-1.5 4-.400357-1.803821-.3-2.4-1.5-4z" fill="#444"/>
</svg>

<svg xmlns="http://www.w3.org/2000/svg" width="16" height="16" version="1">
 <defs>
  <style id="current-color-scheme" type="text/css">
   .ColorScheme-Text { color:#444444; } .ColorScheme-Highlight { color:#4285f4; }
  </style>
 </defs>
 <path style="fill:currentColor" class="ColorScheme-Text" d="M 8 1 A 7 7 0 0 0 1 8 A 7 7 0 0 0 8 15 A 7 7 0 0 0 15 8 A 7 7 0 0 0 8 1 z M 5 3 C 6.6 4.2 10.298967 4.201999 12 4.5 C 10.821221 4.7616295 8.8828226 4.8157437 7.2304688 5.1523438 C 8.6561434 6.1680861 9.391453 6.2182015 11 6.5 C 9.287227 6.8801489 8.6393061 6.8421866 7.2109375 7.8613281 C 8.8952874 8.2286678 10.878459 8.3035192 12 8.5 C 10.196179 8.900357 6.6 8.8 5 10 L 6.5 10.199219 L 8 10 C 6.8 11.6 6.7980011 12.298967 6.5 14 C 6.0996432 12.196179 6.2 11.6 5 10 L 5.1992188 8.5 L 5 7 C 5.5052456 7.3789342 6.2285944 7.6313016 7.0234375 7.8183594 L 7.1992188 6.5 L 7.0273438 5.1992188 C 6.2334253 5.3758405 5.5105256 5.6171058 5 6 L 5.1992188 4.5 L 5 3 z M 9 10 L 10.5 10.199219 L 12 10 C 10.8 11.6 10.798001 12.298967 10.5 14 C 10.099643 12.196179 10.2 11.6 9 10 z"/>
</svg>
